X:2
T:Sporting Nell
R:reel
M:4/4
L:1/8
K:DMix
AD (3FED A2 dB|ABAG EFGB|AD (3FED A2 <span
class=SpellE>dB|ABGE EDDB|!
AD (3FED A2 dB|ABAG EFGB|AD (3FED A2 dB|A2 GE
{G}EDDB||!
c2ec
gcec | c2ec AddB | c2ec <span
class=SpellE>gcec | AcGE EDDB |
c2ec gcec | c2ec Adde | =f3
d e3 d | cAAG Addc ||<span
